X:1
T:Song of Jonah
T:Tune: John Ambrose Lloyd, 1815-1874 Text under copyright; for copyrighted material see Psalter Hymnal 202
T:87 87 D EIFIONYDD www.hymnary.org//text/song_of_jonah
T:Song of Jonah
T:This tune is in the public domain. You may freely use this score for personal and congregational worship. If you reproduce the score, please credit Hymnary.org as the source. 
T:This tune is in the public domain. You may freely use this score for personal and congregational worship. If you reproduce the score, please credit Hymnary.org as the source. 
Z:This tune is in the public domain. You may freely use this score for personal and congregational worship. If you reproduce the score, please credit Hymnary.org as the source.
%%score ( 1 2 ) ( 3 4 )
L:1/8
M:4/4
K:Bb
V:1 treble nm="SOPRANO ALTO" snm="S. A."
V:2 treble 
V:3 bass nm="TENOR BASS" snm="T. B."
V:4 bass 
V:1
 G2 GA B2 AG | ^F2 G2 A2 D2 | G2 ^FG A2 GA | B2 A2 G4 | G2 GA B2 AG | ^F2 G2 A2 D2 | G2 ^FG A2 GA | %7
 B2 A2 G4 | B2 Bc d2 B2 |1 A2 B2 c2 A2 | G2 GA B2 d2 | c2 B2 A4 | d2 dc B2 || A2 | G2 FG A2 D2 | %15
 G2 ^FG A2 GA | B2 A2 G4 |] %17
V:2
 D2 D2 D2 E2 | D2 D^C D2 A,2 | D2 D2 E2 DE | D3 C B,4 | D2 D2 D2 E2 | D2 D^C D2 A,2 | D2 D2 E2 DE | %7
 D3 C B,4 | D2 D2 D2 D2 |1 D2 D2 E2 DC | B,C D2 D2 D2 | E2 D2 D4 | D2 D2 D2 || ^F2 | D2 D2 ^F2 D2 | %15
 D2 CD E2 DE | D3 C B,4 |] %17
V:3
 B,2 B,C D2 CB, | A,2 G,2 ^F,2 F,2 | G,2 A,B, C2 G,2 | G,2 ^F,2 G,4 | B,2 B,C D2 CB, | %5
 A,2 G,2 ^F,2 F,2 | G,2 A,B, C2 G,2 | G,2 ^F,2 G,4 | G,2 B,2 A,2 G,2 |1 ^F,2 G,2 G,2 F,2 | %10
 G,A, B,C D2 G,2 | G,2 G,2 ^F,4 | G,2 ^F,2 G,2 || A,2 | B,2 CB, A,2 ^F,2 | G,2 A,B, C2 G,2 | %16
 G,2 ^F,2 G,4 |] %17
V:4
 G,2 G,2 G,2 C,2 | D,2 E,2 D,2 D,C, | B,,2 A,,G,, C,2 B,,C, | D,2 D,2 G,,4 | G,,2 G,,2 G,2 C,2 | %5
 D,2 E,2 D,2 D,C, | B,,2 A,,G,, C,2 B,,C, | D,2 D,2 G,,4 | G,2 G,2 ^F,2 G,2 |1 D,2 G,,2 C,2 D,2 | %10
 G,,2 G,,2 G,2 B,,2 | C,2 G,,2 D,4 | B,,2 D,2 G,2 || D,C, | B,,2 A,,G,, D,2 D,C, | %15
 B,,2 A,,G,, C,2 B,,C, | D,2 D,2 G,,4 |] %17

